assets/dist/images/landing-pages/external-attributes/newsletter.svg

<svg xmlns="http://www.w3.org/2000/svg" width="160" height="224" viewBox="0 0 160 224">
  <g fill="none" fill-rule="evenodd" transform="translate(2 2)">
    <path fill="#FFF" stroke="#1B2E5B" stroke-width="2" d="M147.995445,-1 C150.481388,-1 152.732047,0.00746214722 154.361416,1.63530165 C155.991771,3.26412629 157,5.51399149 157,7.99704176 L157,7.99704176 L157,196.002958 C157,198.486836 155.991326,200.735752 154.361638,202.36391 C152.731372,203.992646 150.47971,205 147.995445,205 L147.995445,205 L8.00455538,205 C5.51861201,205 3.26795321,203.992538 1.63858428,202.364698 C0.00822927675,200.735874 -1,198.486009 -1,196.002958 L-1,196.002958 L-1,7.99704176 C-1,5.51316447 0.00867369694,3.26424817 1.63836152,1.63609008 C3.26862826,0.00735362082 5.52028972,-1 8.00455538,-1 L8.00455538,-1 Z"/>
    <rect width="156" height="1" y="18" fill="#E1E1E1"/>
    <path fill="#FFF" stroke="#E1E1E1" d="M50.9950767,128.5 C51.4111422,128.5 51.7879614,128.667319 52.0605527,128.938873 C52.3321034,129.20939 52.5,129.583313 52.5,129.997292 L52.5,129.997292 L52.5,166.002708 C52.5,166.415833 52.3315173,166.789734 52.0597355,167.060481 C51.7871028,167.332076 51.4105344,167.5 50.9950767,167.5 L50.9950767,167.5 L11.0049233,167.5 C10.5888578,167.5 10.2120386,167.332681 9.93944732,167.061127 C9.66789663,166.79061 9.5,166.416687 9.5,166.002708 L9.5,166.002708 L9.5,129.997292 C9.5,129.584167 9.66848275,129.210266 9.94026449,128.939519 C10.2128972,128.667924 10.5894656,128.5 11.0049233,128.5 L11.0049233,128.5 Z"/>
    <rect width="43" height="39" x="56.5" y="128.5" fill="#FFF" stroke="#E1E1E1" rx="2"/>
    <path fill="#FFF" stroke="#E1E1E1" d="M144.995077,128.5 C145.411142,128.5 145.787961,128.667319 146.060553,128.938873 C146.332103,129.20939 146.5,129.583313 146.5,129.997292 L146.5,129.997292 L146.5,166.002708 C146.5,166.415833 146.331517,166.789734 146.059736,167.060481 C145.787103,167.332076 145.410534,167.5 144.995077,167.5 L144.995077,167.5 L105.004923,167.5 C104.588858,167.5 104.212039,167.332681 103.939447,167.061127 C103.667897,166.79061 103.5,166.416687 103.5,166.002708 L103.5,166.002708 L103.5,129.997292 C103.5,129.584167 103.668483,129.210266 103.940264,128.939519 C104.212897,128.667924 104.589466,128.5 105.004923,128.5 L105.004923,128.5 Z"/>
    <g transform="translate(66 53)">
      <path fill="#FFF" stroke="#E1E1E1" d="M11.6508621,-0.5 C15.0014455,-0.5 18.0393335,0.863375507 20.2394907,3.06535419 C22.4394979,5.2671829 23.8017241,8.30735922 23.8017241,11.6605081 C23.8017241,15.0136569 22.4394979,18.0538333 20.2394907,20.255662 C18.0393335,22.4576407 15.0014455,23.8210162 11.6508621,23.8210162 C8.30027866,23.8210162 5.26239059,22.4576407 3.06223347,20.255662 C0.86222619,18.0538333 -0.5,15.0136569 -0.5,11.6605081 C-0.5,8.30735922 0.86222619,5.2671829 3.06223347,3.06535419 C5.26239059,0.863375507 8.30027866,-0.5 11.6508621,-0.5 Z"/>
      <path fill="#6FD350" d="M14.0439982,13.3235294 C14.6157919,12.7560554 15.0123231,12.0570934 15.1306253,11.6449827 C15.2076677,11.3813149 15.2620721,11.0989619 15.2960292,10.8878893 C15.5388407,10.7785467 15.7254222,10.5892734 15.8280237,10.3515571 C15.9722501,10.0065744 16.0507531,9.26747405 16.0522136,9.23633218 C16.1135555,8.64982699 15.8966682,8.31314879 15.876586,8.29550173 C16.129256,5.92076125 15.3274304,5.45155709 14.7939754,5.36782007 C14.6044728,5.33806228 14.3178457,5.27058824 14.1893199,5.13529412 C13.8913738,4.82318339 13.7584665,4.47577855 13.2421725,4.50276817 C13.0512095,4.51349481 12.7930625,4.4567474 12.6462802,4.33944637 C12.4494751,4.18235294 12.176723,4 11.9744409,4 C11.7761753,4 11.5264263,4.17577855 11.3438613,4.32975779 C11.2014605,4.45155709 10.9487905,4.51245675 10.7578275,4.50138408 C10.2415335,4.47301038 10.1086262,4.82179931 9.81068005,5.13391003 C9.68215427,5.26920415 9.39406664,5.3366782 9.20602465,5.36643599 C8.6725696,5.45017301 7.87110908,5.91937716 8.12341397,8.29411765 C8.10187129,8.31453287 7.88790507,8.65363322 7.9477864,9.2349481 C7.95070744,9.26608997 8.02774989,10.0065744 8.17197627,10.350173 C8.2731173,10.5878893 8.46152442,10.7771626 8.70397079,10.8865052 C8.73792789,11.0989619 8.79379279,11.3799308 8.86937471,11.6435986 C8.99205842,12.066782 9.39151073,12.7788927 9.97170242,13.350519 L9.96038339,13.350519 C9.89210406,16.1214533 4.73719763,15.2847751 4,18.4477509 C5.91839343,20.616955 8.79233227,22 12.0014605,22 C15.2105888,22 18.0859881,20.616955 20,18.4491349 C19.2682793,15.2782007 14.1250571,16.0878893 14.0439982,13.3235294 L14.0439982,13.3235294 Z"/>
    </g>
    <g fill="#E1E1E1" transform="translate(27 35)">
      <rect width="32" height="8" rx="4"/>
      <rect width="22" height="8" x="36" rx="4"/>
      <rect width="40" height="8" x="62" rx="4"/>
    </g>
    <g fill="#F1F1F1" transform="translate(48 97)">
      <rect width="24" height="4" rx="2"/>
      <rect width="32" height="4" x="28" rx="2"/>
    </g>
    <g fill="#E1E1E1" transform="translate(54 83)">
      <rect width="24.216" height="8" rx="4"/>
      <rect width="19.647" height="8" x="28.216" rx="4"/>
    </g>
    <rect width="24" height="5.487" x="9" y="117" fill="#E1E1E1" rx="2.744"/>
    <rect width="24" height="6" x="9" y="174" fill="#E1E1E1" rx="2.744"/>
    <rect width="24" height="6" x="56" y="174" fill="#E1E1E1" rx="2.744"/>
    <rect width="24" height="6" x="103" y="174" fill="#E1E1E1" rx="2.744"/>
    <rect width="14.621" height="4" x="9" y="183" fill="#F1F1F1" rx="2"/>
    <rect width="14.621" height="4" x="56" y="183" fill="#F1F1F1" rx="2"/>
    <rect width="14.621" height="4" x="103" y="183" fill="#F1F1F1" rx="2"/>
    <circle cx="9" cy="9" r="3" fill="#F15242"/>
    <circle cx="19" cy="9" r="3" fill="#FFC111"/>
    <circle cx="29" cy="9" r="3" fill="#6FD350"/>
    <g transform="translate(33 188)">
      <rect width="92" height="34" x="-1" y="-1" fill="#FFF" stroke="#1B2E5B" stroke-width="2" rx="8"/>
      <path fill="#384254" fill-rule="nonzero" d="M32.44,23.496 L32.44,21.304 L31.896,21.304 C31.5866667,21.304 31.376,21.2026667 31.264,21 C31.152,20.7973333 31.096,20.5786667 31.096,20.344 L31.096,20.344 L31.096,18.184 C31.096,17.8746667 31.048,17.6106667 30.952,17.392 C30.856,17.1733333 30.7413333,16.9946667 30.608,16.856 C30.4746667,16.7173333 30.328,16.6133333 30.168,16.544 C30.008,16.4746667 29.864,16.4293333 29.736,16.408 L29.736,16.408 L29.736,16.376 C29.864,16.3653333 30.008,16.3226667 30.168,16.248 C30.328,16.1733333 30.4746667,16.0666667 30.608,15.928 C30.7413333,15.7893333 30.856,15.6106667 30.952,15.392 C31.048,15.1733333 31.096,14.9093333 31.096,14.6 L31.096,14.6 L31.096,12.44 C31.096,12.2053333 31.152,11.9866667 31.264,11.784 C31.376,11.5813333 31.5866667,11.48 31.896,11.48 L31.896,11.48 L32.44,11.48 L32.44,9.288 L30.904,9.288 C30.4773333,9.288 30.1146667,9.36266667 29.816,9.512 C29.5173333,9.66133333 29.272,9.86133333 29.08,10.112 C28.888,10.3626667 28.7466667,10.6533333 28.656,10.984 C28.5653333,11.3146667 28.52,11.6613333 28.52,12.024 L28.52,12.024 L28.52,14.136 C28.52,14.5946667 28.4266667,14.896 28.24,15.04 C28.0533333,15.184 27.8,15.256 27.48,15.256 L27.48,15.256 L27.48,17.528 C27.8,17.528 28.0533333,17.6 28.24,17.744 C28.4266667,17.888 28.52,18.1893333 28.52,18.648 L28.52,18.648 L28.52,20.76 C28.52,21.1226667 28.5653333,21.4693333 28.656,21.8 C28.7466667,22.1306667 28.888,22.4213333 29.08,22.672 C29.272,22.9226667 29.5173333,23.1226667 29.816,23.272 C30.1146667,23.4213333 30.4773333,23.496 30.904,23.496 L30.904,23.496 L32.44,23.496 Z M38.2,23.496 L38.2,21.304 L37.656,21.304 C37.3466667,21.304 37.136,21.2026667 37.024,21 C36.912,20.7973333 36.856,20.5786667 36.856,20.344 L36.856,20.344 L36.856,18.184 C36.856,17.8746667 36.808,17.6106667 36.712,17.392 C36.616,17.1733333 36.5013333,16.9946667 36.368,16.856 C36.2346667,16.7173333 36.088,16.6133333 35.928,16.544 C35.768,16.4746667 35.624,16.4293333 35.496,16.408 L35.496,16.408 L35.496,16.376 C35.624,16.3653333 35.768,16.3226667 35.928,16.248 C36.088,16.1733333 36.2346667,16.0666667 36.368,15.928 C36.5013333,15.7893333 36.616,15.6106667 36.712,15.392 C36.808,15.1733333 36.856,14.9093333 36.856,14.6 L36.856,14.6 L36.856,12.44 C36.856,12.2053333 36.912,11.9866667 37.024,11.784 C37.136,11.5813333 37.3466667,11.48 37.656,11.48 L37.656,11.48 L38.2,11.48 L38.2,9.288 L36.664,9.288 C36.2373333,9.288 35.8746667,9.36266667 35.576,9.512 C35.2773333,9.66133333 35.032,9.86133333 34.84,10.112 C34.648,10.3626667 34.5066667,10.6533333 34.416,10.984 C34.3253333,11.3146667 34.28,11.6613333 34.28,12.024 L34.28,12.024 L34.28,14.136 C34.28,14.5946667 34.1866667,14.896 34,15.04 C33.8133333,15.184 33.56,15.256 33.24,15.256 L33.24,15.256 L33.24,17.528 C33.56,17.528 33.8133333,17.6 34,17.744 C34.1866667,17.888 34.28,18.1893333 34.28,18.648 L34.28,18.648 L34.28,20.76 C34.28,21.1226667 34.3253333,21.4693333 34.416,21.8 C34.5066667,22.1306667 34.648,22.4213333 34.84,22.672 C35.032,22.9226667 35.2773333,23.1226667 35.576,23.272 C35.8746667,23.4213333 36.2373333,23.496 36.664,23.496 L36.664,23.496 L38.2,23.496 Z M53.336,23.496 C53.7626667,23.496 54.1253333,23.4213333 54.424,23.272 C54.7226667,23.1226667 54.968,22.9226667 55.16,22.672 C55.352,22.4213333 55.4933333,22.1306667 55.584,21.8 C55.6746667,21.4693333 55.72,21.1226667 55.72,20.76 L55.72,20.76 L55.72,18.648 C55.72,18.1893333 55.8133333,17.888 56,17.744 C56.1866667,17.6 56.44,17.528 56.76,17.528 L56.76,17.528 L56.76,15.256 C56.44,15.256 56.1866667,15.184 56,15.04 C55.8133333,14.896 55.72,14.5946667 55.72,14.136 L55.72,14.136 L55.72,12.024 C55.72,11.6613333 55.6746667,11.3146667 55.584,10.984 C55.4933333,10.6533333 55.352,10.3626667 55.16,10.112 C54.968,9.86133333 54.7226667,9.66133333 54.424,9.512 C54.1253333,9.36266667 53.7626667,9.288 53.336,9.288 L53.336,9.288 L51.8,9.288 L51.8,11.48 L52.344,11.48 C52.6533333,11.48 52.864,11.5813333 52.976,11.784 C53.088,11.9866667 53.144,12.2053333 53.144,12.44 L53.144,12.44 L53.144,14.6 C53.144,14.9093333 53.192,15.1733333 53.288,15.392 C53.384,15.6106667 53.4986667,15.7893333 53.632,15.928 C53.7653333,16.0666667 53.912,16.1733333 54.072,16.248 C54.232,16.3226667 54.376,16.3653333 54.504,16.376 L54.504,16.376 L54.504,16.408 C54.376,16.4293333 54.232,16.4746667 54.072,16.544 C53.912,16.6133333 53.7653333,16.7173333 53.632,16.856 C53.4986667,16.9946667 53.384,17.1733333 53.288,17.392 C53.192,17.6106667 53.144,17.8746667 53.144,18.184 L53.144,18.184 L53.144,20.344 C53.144,20.5786667 53.088,20.7973333 52.976,21 C52.864,21.2026667 52.6533333,21.304 52.344,21.304 L52.344,21.304 L51.8,21.304 L51.8,23.496 L53.336,23.496 Z M59.096,23.496 C59.5226667,23.496 59.8853333,23.4213333 60.184,23.272 C60.4826667,23.1226667 60.728,22.9226667 60.92,22.672 C61.112,22.4213333 61.2533333,22.1306667 61.344,21.8 C61.4346667,21.4693333 61.48,21.1226667 61.48,20.76 L61.48,20.76 L61.48,18.648 C61.48,18.1893333 61.5733333,17.888 61.76,17.744 C61.9466667,17.6 62.2,17.528 62.52,17.528 L62.52,17.528 L62.52,15.256 C62.2,15.256 61.9466667,15.184 61.76,15.04 C61.5733333,14.896 61.48,14.5946667 61.48,14.136 L61.48,14.136 L61.48,12.024 C61.48,11.6613333 61.4346667,11.3146667 61.344,10.984 C61.2533333,10.6533333 61.112,10.3626667 60.92,10.112 C60.728,9.86133333 60.4826667,9.66133333 60.184,9.512 C59.8853333,9.36266667 59.5226667,9.288 59.096,9.288 L59.096,9.288 L57.56,9.288 L57.56,11.48 L58.104,11.48 C58.4133333,11.48 58.624,11.5813333 58.736,11.784 C58.848,11.9866667 58.904,12.2053333 58.904,12.44 L58.904,12.44 L58.904,14.6 C58.904,14.9093333 58.952,15.1733333 59.048,15.392 C59.144,15.6106667 59.2586667,15.7893333 59.392,15.928 C59.5253333,16.0666667 59.672,16.1733333 59.832,16.248 C59.992,16.3226667 60.136,16.3653333 60.264,16.376 L60.264,16.376 L60.264,16.408 C60.136,16.4293333 59.992,16.4746667 59.832,16.544 C59.672,16.6133333 59.5253333,16.7173333 59.392,16.856 C59.2586667,16.9946667 59.144,17.1733333 59.048,17.392 C58.952,17.6106667 58.904,17.8746667 58.904,18.184 L58.904,18.184 L58.904,20.344 C58.904,20.5786667 58.848,20.7973333 58.736,21 C58.624,21.2026667 58.4133333,21.304 58.104,21.304 L58.104,21.304 L57.56,21.304 L57.56,23.496 L59.096,23.496 Z"/>
    </g>
    <circle cx="31" cy="148" r="10" fill="#FFC111"/>
    <circle cx="78" cy="148" r="10" fill="#F15242"/>
    <circle cx="125" cy="148" r="10" fill="#6F0DFB"/>
  </g>
</svg>

<svg xmlns="http://www.w3.org/2000/svg" width="160" height="224" viewBox="0 0 160 224"><g fill="none" fill-rule="evenodd" transform="translate(2 2)"><path fill="#FFF" stroke="#1B2E5B" stroke-width="2" d="M147.995-1a8.98 8.98 0 016.366 2.635A8.966 8.966 0 01157 7.997h0v188.006a8.964 8.964 0 01-2.638 6.36 8.981 8.981 0 01-6.367 2.637h0H8.005a8.98 8.98 0 01-6.366-2.635A8.966 8.966 0 01-1 196.003h0V7.997a8.964 8.964 0 012.638-6.36A8.981 8.981 0 018.005-1h0z"/><path fill="#E1E1E1" d="M0 18h156v1H0z"/><path fill="#FFF" stroke="#E1E1E1" d="M50.995 128.5c.416 0 .793.167 1.066.439.271.27.439.644.439 1.058h0v36.006a1.504 1.504 0 01-1.505 1.497h0-39.99c-.416 0-.793-.167-1.066-.439a1.488 1.488 0 01-.439-1.058h0v-36.006a1.504 1.504 0 011.505-1.497h0z"/><rect width="43" height="39" x="56.5" y="128.5" fill="#FFF" stroke="#E1E1E1" rx="2"/><path fill="#FFF" stroke="#E1E1E1" d="M144.995 128.5c.416 0 .793.167 1.066.439.271.27.439.644.439 1.058h0v36.006a1.504 1.504 0 01-1.505 1.497h0-39.99c-.416 0-.793-.167-1.066-.439a1.488 1.488 0 01-.439-1.058h0v-36.006a1.504 1.504 0 011.505-1.497h0zm-67.345-76a12.11 12.11 0 018.59 3.565 12.128 12.128 0 013.562 8.596c0 3.353-1.363 6.393-3.563 8.595a12.108 12.108 0 01-8.588 3.565 12.11 12.11 0 01-8.589-3.565A12.128 12.128 0 0165.5 64.66c0-3.354 1.362-6.394 3.562-8.596a12.108 12.108 0 018.589-3.565z"/><path fill="#6FD350" d="M80.044 66.324c.572-.568.968-1.267 1.087-1.679.077-.264.131-.546.165-.757.243-.11.43-.299.532-.536.144-.345.223-1.085.224-1.116.062-.586-.155-.923-.175-.94.252-2.375-.55-2.844-1.083-2.928-.19-.03-.476-.097-.605-.233-.298-.312-.43-.66-.947-.632-.19.01-.449-.046-.596-.164-.197-.157-.47-.339-.672-.339-.198 0-.448.176-.63.33-.143.122-.395.182-.586.171-.516-.028-.65.32-.947.633-.129.135-.417.203-.605.232-.533.084-1.335.553-1.083 2.928-.021.02-.235.36-.175.94.003.032.08.773.224 1.116.101.238.29.427.532.537.034.212.09.493.165.757.123.423.523 1.135 1.103 1.707h-.012c-.068 2.77-5.223 1.934-5.96 5.097C71.918 73.617 74.792 75 78.001 75c3.21 0 6.085-1.383 7.999-3.55-.732-3.172-5.875-2.362-5.956-5.126z"/><g fill="#E1E1E1" transform="translate(27 35)"><rect width="32" height="8" rx="4"/><rect width="22" height="8" x="36" rx="4"/><rect width="40" height="8" x="62" rx="4"/></g><g fill="#F1F1F1" transform="translate(48 97)"><rect width="24" height="4" rx="2"/><rect width="32" height="4" x="28" rx="2"/></g><g fill="#E1E1E1" transform="translate(54 83)"><rect width="24.216" height="8" rx="4"/><rect width="19.647" height="8" x="28.216" rx="4"/></g><rect width="24" height="5.487" x="9" y="117" fill="#E1E1E1" rx="2.744"/><rect width="24" height="6" x="9" y="174" fill="#E1E1E1" rx="2.744"/><rect width="24" height="6" x="56" y="174" fill="#E1E1E1" rx="2.744"/><rect width="24" height="6" x="103" y="174" fill="#E1E1E1" rx="2.744"/><rect width="14.621" height="4" x="9" y="183" fill="#F1F1F1" rx="2"/><rect width="14.621" height="4" x="56" y="183" fill="#F1F1F1" rx="2"/><rect width="14.621" height="4" x="103" y="183" fill="#F1F1F1" rx="2"/><circle cx="9" cy="9" r="3" fill="#F15242"/><circle cx="19" cy="9" r="3" fill="#FFC111"/><circle cx="29" cy="9" r="3" fill="#6FD350"/><g transform="translate(33 188)"><rect width="92" height="34" x="-1" y="-1" fill="#FFF" stroke="#1B2E5B" stroke-width="2" rx="8"/><path fill="#384254" fill-rule="nonzero" d="M32.44 23.496v-2.192h-.544c-.31 0-.52-.101-.632-.304a1.335 1.335 0 01-.168-.656v-2.16c0-.31-.048-.573-.144-.792a1.82 1.82 0 00-.344-.536 1.36 1.36 0 00-.44-.312 1.886 1.886 0 00-.432-.136v-.032a1.475 1.475 0 00.872-.448 1.82 1.82 0 00.344-.536c.096-.219.144-.483.144-.792v-2.16c0-.235.056-.453.168-.656.112-.203.323-.304.632-.304h.544V9.288h-1.536c-.427 0-.79.075-1.088.224-.299.15-.544.35-.736.6-.192.25-.333.541-.424.872-.09.33-.136.677-.136 1.04v2.112c0 .459-.093.76-.28.904-.187.144-.44.216-.76.216v2.272c.32 0 .573.072.76.216.187.144.28.445.28.904v2.112c0 .363.045.71.136 1.04.09.33.232.621.424.872.192.25.437.45.736.6.299.15.661.224 1.088.224h1.536zm5.76 0v-2.192h-.544c-.31 0-.52-.101-.632-.304a1.335 1.335 0 01-.168-.656v-2.16c0-.31-.048-.573-.144-.792a1.82 1.82 0 00-.344-.536 1.36 1.36 0 00-.44-.312 1.886 1.886 0 00-.432-.136v-.032a1.475 1.475 0 00.872-.448 1.82 1.82 0 00.344-.536c.096-.219.144-.483.144-.792v-2.16c0-.235.056-.453.168-.656.112-.203.323-.304.632-.304h.544V9.288h-1.536c-.427 0-.79.075-1.088.224-.299.15-.544.35-.736.6-.192.25-.333.541-.424.872-.09.33-.136.677-.136 1.04v2.112c0 .459-.093.76-.28.904-.187.144-.44.216-.76.216v2.272c.32 0 .573.072.76.216.187.144.28.445.28.904v2.112c0 .363.045.71.136 1.04.09.33.232.621.424.872.192.25.437.45.736.6.299.15.661.224 1.088.224H38.2zm15.136 0c.427 0 .79-.075 1.088-.224.299-.15.544-.35.736-.6.192-.25.333-.541.424-.872.09-.33.136-.677.136-1.04v-2.112c0-.459.093-.76.28-.904.187-.144.44-.216.76-.216v-2.272c-.32 0-.573-.072-.76-.216-.187-.144-.28-.445-.28-.904v-2.112c0-.363-.045-.71-.136-1.04a2.507 2.507 0 00-.424-.872 2.086 2.086 0 00-.736-.6c-.299-.15-.661-.224-1.088-.224H51.8v2.192h.544c.31 0 .52.101.632.304.112.203.168.421.168.656v2.16c0 .31.048.573.144.792.096.219.21.397.344.536a1.475 1.475 0 00.872.448v.032a1.886 1.886 0 00-.432.136 1.36 1.36 0 00-.44.312 1.82 1.82 0 00-.344.536 1.964 1.964 0 00-.144.792v2.16c0 .235-.056.453-.168.656-.112.203-.323.304-.632.304H51.8v2.192h1.536zm5.76 0c.427 0 .79-.075 1.088-.224.299-.15.544-.35.736-.6.192-.25.333-.541.424-.872.09-.33.136-.677.136-1.04v-2.112c0-.459.093-.76.28-.904.187-.144.44-.216.76-.216v-2.272c-.32 0-.573-.072-.76-.216-.187-.144-.28-.445-.28-.904v-2.112c0-.363-.045-.71-.136-1.04a2.507 2.507 0 00-.424-.872 2.086 2.086 0 00-.736-.6c-.299-.15-.661-.224-1.088-.224H57.56v2.192h.544c.31 0 .52.101.632.304.112.203.168.421.168.656v2.16c0 .31.048.573.144.792.096.219.21.397.344.536a1.475 1.475 0 00.872.448v.032a1.886 1.886 0 00-.432.136 1.36 1.36 0 00-.44.312 1.82 1.82 0 00-.344.536 1.964 1.964 0 00-.144.792v2.16c0 .235-.056.453-.168.656-.112.203-.323.304-.632.304h-.544v2.192h1.536z"/></g><circle cx="31" cy="148" r="10" fill="#FFC111"/><circle cx="78" cy="148" r="10" fill="#F15242"/><circle cx="125" cy="148" r="10" fill="#6F0DFB"/></g></svg>
